X:1
T:Title
%%score { ( 1 3 ) | ( 2 4 ) }
L:1/8
Q:1/4=92
M:2/4
K:Eb
V:1 treble nm="Grand Piano"
V:3 treble 
V:2 bass 
V:4 bass 
V:1
 EG BB | cc B2 | eB GE | [B,EG]2 [B,DF]2 | EG BB | cc B2 | [Ge][B,FB] [B,EG][=A,E] | %7
w: Thoro~Harris * * *|||||||
 [A,DF]2 [G,E]2 | [DF][DF] [FA][FA] | GG B2 | cc ec | z2 F2 | BB cB | G[A,DF] [G,E]2 | %14
w: |||||||
 [B,EG]<[B,EG] [CEF]>[A,DG] | [G,E]4 | [DF]A FA | GB GB | =AF GA | dc .[GB]2 | [DF]A FA | GB GB | %22
w: ||||||||
 =Ae cA | [DB]4 | EG BB | cc B2 | eB GE | [B,EG]2 [B,DF]2 | EG BB | cc B2 | %30
w: ||||||||
 [Ge][B,FB] [B,EG][=A,E] |[M:6/4] [A,DF]2 .[G,E]4 z6 |] %32
w: ||
V:2
 E,G, B,B, | CC B,2 | [E,E]B, G,E, | B,,2 B,,2 | E,G, B,B, | CC B,2 | [C,=A,]D, E,C, | B,,2 E,2 | %8
 [B,,B,][B,,B,] [B,,B,][B,,B,] | [E,B,E][E,B,E] [E,G,E]2 | [A,E][A,E] [A,CE][A,E] | %11
 [G,B,E][E,B,E] [B,D]2 | [G,B,E][F,A,D] [E,G,E][E,G,E] | [E,B,E]B,, C,2 | G,,<G,, A,,>B,, | E,4 | %16
 B,,2 .[F,B,D]2 | .[E,E]2 .[G,B,E]2 | .[F,E]2[K:treble] .[=A,CE]2 | [A,B,F]2[K:bass] z G | %20
 B,,2 .[F,B,D]2 | .[E,E]2 .[G,B,E]2 | .[F,D]2 .[=A,CE]2 | B,A, G,F, | E,G, B,B, | CC B,2 | %26
 [E,E]B, G,E, | B,,2 B,,2 | E,G, B,B, | CC B,2 | [C,=A,]D, E,C, |[M:6/4] B,,2 .E,4 z6 |] %32
V:3
 x4 | x4 | x4 | x4 | x4 | x4 | x4 | x4 | x4 | x4 | x4 | BG z A, | x4 | x4 | x4 | x4 | x4 | x4 | %18
 x4 | x4 | x4 | x4 | x4 | x4 | x4 | x4 | x4 | x4 | x4 | x4 | x4 |[M:6/4] x12 |] %32
V:4
 x4 | x4 | x4 | x4 | x4 | x4 | x4 | x4 | x4 | x4 | x4 | x4 | x4 | x4 | x4 | x4 | x4 | x4 | %18
 x2[K:treble] x2 | z2[K:bass] [E,B,]2 | x4 | x4 | x4 | x4 | x4 | x4 | x4 | x4 | x4 | x4 | x4 | %31
[M:6/4] x12 |] %32

